X:1
T:James Gibb editions
T:Tanta beltad'è in voi - Festa
T:#
%%score [ 1 2 3 ]
L:1/8
Q:1/4=120
M:4/4
K:G
V:1 treble nm="Soprano" snm="S"
V:2 treble nm="Alto" snm="A"
V:3 bass nm="Bass" snm="B"
V:1
"^Tanta beltad'è in voi""^Costanzo Festa\n(1490-1545)" z8 | z4 G4 | d2 d2 e2 c2 | d2 d2 e2 f2 | %4
w: |Tan-|ta bel- ta- d'è~~in|voi e leg- gia-|
 (g6 fe) | f4 d4 |[M:4/4] e2 e2 e2 e2 | c4 d4- | d4 d4 | g3 f e2 d2 | c2 B2 c2 c2 | A4 G4 | %12
w: dri\- * *|a Che|per la ri- mem-|bran- za|* Nul-|l'al- tro che'l mo-|rir per lei m'a-|van- za|
 z2 G2 G3 A | B2 c2 d4 | A2 A2 c2 c2 | G2 A2 B2 c2 | d2 (cB) (A2 e2- | ed d3 ^c/B/ c2) | d4 z2 d2 | %19
w: Ché qua- lor|gli~~oc- chi gi-|ro ver- so di|voi Ma- don- n'un|tan- t'ar\- * do\- *||re in|
 d2 d2 B4 | G4 g3 f | e3 d (c4 | d6 e2- | e2 dc) B4 | A4 A2 A2 | d2 c2 B2 A2 | z2 A2 B2 G2 | %27
w: me S'ac- cen-|d'in mo- d'u-|na tal fiam\-||* * * ma|Che tut- t'a|dram- ma dram- ma|In po- co|
 d4 c4 | B4 z2 A2 | c2 G2 d4 | c4 (B2 d2- | dc B4 A2 | B8) | z8 | c4 c2 B2 | A2 A2 G2 d2 | %36
w: spa- ci-|o e'n|un bre- ve|so- spi\- *||ro||M'in- fiam- ma|l'al- ma~el cor- p'i|
 d3 c B4 | A4 d4 | d2 d2 B2 c2 | d2 d2 d4 | e3 d c3 B | A2 d2 c2 B2 | A4 B4- | B8 | z2 G2 G2 G2 | %45
w: sen- s'el co-|re Che|sem- pr'a tut- te|l'o- re Si|strug- ge'l cor in|si dol- ce lan-|gui- re||E mo- rir|
 (ABcA) B4- | B8 | z2 G2 G2 G2 | (ABcA) B2 d2 | d2 d2 e2 (c2- | cBAG) A4 | G2 d2 d2 d2 | %52
w: bra\- * * * ma,||e mo- rir|bra\- * * * ma E|non puo- te mo\-|* * * * ri-|re, e non puo-|
 e2[Q:1/4=119] (c3[Q:1/4=117] B[Q:1/4=117]A[Q:1/4=116]G) |[Q:1/4=114] A4[Q:1/4=112] G4- | %54
w: te mo\- * * *|ri- re.|
[Q:1/4=108] G8 |[Q:1/4=104] G8 |[Q:1/4=102] !fermata!G8 |] %57
w: |||
V:2
 D4 G2 G2 | A2 F2 G4 | F4 G2 A2 | (BcdB c2 d2- | d2 ^c2) d4- | d4 B4 |[M:4/4] c2 c2 c2 c2 | %7
w: Tan- ta bel-|ta- d'è~~in voi|e leg- gia-|dri\- * * * * *|* * a|* Che|per la ri- mem-|
 A4 A2 A2 | d3 c B2 A2 | G2 A4 F2- | F2 G2 (A2 G2- | G2 F2) G4- | G4 z4 | D4 D3 E | F2 G2 A4 | %15
w: bran- za Nul-|l'al- tro che'l mo-|rir per lei|* m'a- van\- *|* * za||Ché qua- lor|gli~~oc- chi gi-|
 E2 E2 G2 G2 | D2 E2 F2 G2 | G2 F2 E4 | D8 | z2 d2 d2 d2 | B4 G4 | c3 B A3 G | (A2 B3 A G2- | %23
w: ro ver- so di|voi Ma- don- n'un|tan- t'ar- do-|re|in me S'ac-|cen- d'in|mo- d'u- na tal|fiam\- * * *|
 G2 F2) G4 | F4 F2 F2 | G2 E2 F4 | F4 z2 E2 | F2 D2 A4 | G4 F4 | z2 E2 F2 D2 | A4 G4 | (F2 ED E4) | %32
w: * * ma|Che tut- t'a|dram- ma dram-|ma In|po- co spa-|ci- o|e'n un bre-|ve so-|spi\- * * *|
 F4 G4 | G3 F E2 D2 | E3 F G4 | (E6 F2) | G8 | F4 F4 | F2 F2 G2 E2 | D2 D2 B4 | c3 B A2 A2 | %41
w: ro M'in-|fiam- ma l'al- ma~el|cor- p'i sen-|s'el *|co-|re Che|sem- pr'a tut te|l'o- re Si|strug- ge'l cor in|
 F2 B2 A2 G2- | G2 F2 G2 D2 | D2 D2 (EFGE | F2 E3 D G2 | G2 F2) G2 D2 | D2 D2 (EFGE | F2 E3 D G2 | %48
w: si dol- ce lan\-|* gui- re E|mo- rir bra\- * * *||* * ma, e|mo- rir bra\- * * *||
 G2 F2) G2 B2 | B2 B2 G2 (A2- | AG) (G4 F2) | G2 B2 B2 B2 | G2 (A3 G) (G2- | G2 F2) G4 | E4 E2 E2 | %55
w: * * ma E|non puo- te mo\-|* * ri\- *|re, e non puo-|te mo\- * ri\-|* * re,|e non puo-|
 D2 D2 E4 | !fermata!D8 |] %57
w: te mo- ri-|re.|
V:3
 z4 G,,4 | D,2 D,2 E,2 C,2 | D,4 C,4 | (G,3 F, E,2) D,2 | E,4 D,4- | D,4 G,4 | %6
w: Tan-|ta bel- ta- d'è~~in|voi e|leg\- * * gia-|dri- a|* Che|
[M:4/4] C,2 C,2 C,2 C,2 | =F,4 D,4 | D,4 G,3 ^F, | E,2 D,2 C,2 B,,2 | A,,2 G,,2 (C,4 | D,4) G,,4- | %12
w: per la ri- mem-|bran- za|Nul- l'al- tro|che'l mo- rir per|lei m'a- van\-|* za|
 G,,4 G,,4 | G,,3 A,, B,,2 C,2 | D,4 A,,2 A,,2 | C,2 C,2 G,,3 A,, | B,,2 C,2 D,2 E,2 | %17
w: * Ché|qua- lor gli~~oc- chi|gi- ro ver-|so di voi Ma-|don- n'un tan- t'ar-|
 (C,2 D,2 A,,4) | D,8- | D,4 G,4 | G,2 G,2 E,4 | C,4 =F,3 E, | (D,3 C, B,,2) C,2 | A,,4 G,,4 | %24
w: do\- * *|re|* in|me S'ac- cen-|d'in mo- d'u-|na * * tal|fiam- ma|
 D,4 D,2 D,2 | B,,2 C,2 D,4 | (D,3 C, B,,2 C,2 | B,,4) z2 A,,2 | B,,2 G,,2 D,4 | C,4 B,,4 | %30
w: Che tut- t'a|dram- ma dram-|ma * * *|* In|po- co spa-|ci- o|
 z2 A,,2 B,,2 G,,2 | D,4 C,4 | B,,4 G,,4 | C,4 C,2 B,,2 | A,,2 A,,2 G,,4 | A,,4 C,2 B,,2 | %36
w: e'n un bre-|ve so-|spi- ro|M'in- fiam- ma|l'al- ma~el cor-|p'i sen- s'el|
 (G,,3 A,, B,,2 C,2) | D,4 B,,4 | B,,2 B,,2 G,,2 A,,2 | B,,2 B,,2 G,4 | C,3 C, C,2 C,2 | %41
w: co\- * * *|re Che|sem- pr'a tut- te|l'o- re Si|strug- ge'l cor in|
 D,2 G,,2 A,,2 B,,2 | (C,2 D,2) G,,4 | G,,4 G,,2 G,,2 | (A,,B,,C,A,, B,,4 | A,,4) G,,4 | %46
w: si dol- ce lan-|gui\- * re|e mo- rir|bra\- * * * *|* ma,|
 G,,4 G,,2 G,,2 | (A,,B,,C,A,, B,,2 C,2 | A,,4) G,,2 G,2 | G,2 G,2 E,2 =F,2- | F,2 E,2 D,4 | %51
w: e mo- rir|bra\- * * * * *|* ma E|non puo- te mo\-|* ri- re,|
 G,,2 G,2 G,2 G,2 | E,2 (=F,4 E,2 | D,4) G,,4 | C,4 C,2 C,2 | B,,2 B,,2 C,4 | !fermata!G,,8 |] %57
w: e non puo- te|mo- ri\- *|* re,|e non puo-|te mo- ri-|re.|

